images_breeze_svg/cmd/32/compressgraphic.svg

<svg viewBox="0 0 32 32" xmlns="http://www.w3.org/2000/svg"><path d="m4 4v24h24v-6-8h-1v7l-6-6-6 6-2-2-8 8v-22h14v-1zm6 3a3 3 0 0 0 -3 3 3 3 0 0 0 3 3 3 3 0 0 0 3-3 3 3 0 0 0 -3-3z" fill="#4d4d4d"/><path d="m24 2.5v9.085938l-3.792969-3.792969-.707031.707031 4 4 1 1 1-1 4-4-.707031-.707031-3.792969 3.792969v-9.085938z" fill="#1d99f3"/></svg>

<?xml version="1.0" encoding="UTF-8" standalone="no"?>
<svg
   xmlns:dc="http://purl.org/dc/elements/1.1/"
   xmlns:cc="http://creativecommons.org/ns#"
   xmlns:rdf="http://www.w3.org/1999/02/22-rdf-syntax-ns#"
   xmlns:svg="http://www.w3.org/2000/svg"
   xmlns="http://www.w3.org/2000/svg"
   xmlns:sodipodi="http://sodipodi.sourceforge.net/DTD/sodipodi-0.dtd"
   xmlns:inkscape="http://www.inkscape.org/namespaces/inkscape"
   viewBox="0 0 32 32"
   version="1.1"
   id="svg6"
   sodipodi:docname="compressgraphic.svg"
   inkscape:version="0.92.4 (unknown)"
   inkscape:export-filename="/home/rizmut/Dokumen/Rizmut/Github/tmp/breeze/cmd/32/compressgraphic.png"
   inkscape:export-xdpi="96"
   inkscape:export-ydpi="96">
  <metadata
     id="metadata12">
    <rdf:RDF>
      <cc:Work
         rdf:about="">
        <dc:format>image/svg+xml</dc:format>
        <dc:type
           rdf:resource="http://purl.org/dc/dcmitype/StillImage" />
        <dc:title></dc:title>
      </cc:Work>
    </rdf:RDF>
  </metadata>
  <defs
     id="defs10" />
  <sodipodi:namedview
     pagecolor="#ffffff"
     bordercolor="#666666"
     borderopacity="1"
     objecttolerance="10"
     gridtolerance="10"
     guidetolerance="10"
     inkscape:pageopacity="0"
     inkscape:pageshadow="2"
     inkscape:window-width="1360"
     inkscape:window-height="714"
     id="namedview8"
     showgrid="true"
     inkscape:zoom="7.375"
     inkscape:cx="16.784322"
     inkscape:cy="21.045196"
     inkscape:window-x="0"
     inkscape:window-y="28"
     inkscape:window-maximized="1"
     inkscape:current-layer="svg6">
    <inkscape:grid
       type="xygrid"
       id="grid828" />
  </sodipodi:namedview>
  <path
     d="M 4 4 L 4 28 L 28 28 L 28 22 L 28 14 L 27 14 L 27 21 L 21 15 L 15 21 L 13 19 L 5 27 L 5 5 L 19 5 L 19 4 L 4 4 z M 10 7 A 3 3 0 0 0 7 10 A 3 3 0 0 0 10 13 A 3 3 0 0 0 13 10 A 3 3 0 0 0 10 7 z "
     id="path2"
     style="fill:#4d4d4d;fill-opacity:1;stroke:none" />
  <path
     d="m 24,2.5 v 9.085938 L 20.207031,7.792969 19.5,8.5 l 4,4 1,1 1,-1 4,-4 L 28.792969,7.792969 25,11.585938 V 2.5 Z"
     id="path4"
     inkscape:connector-curvature="0"
     style="fill:#1d99f3"
     sodipodi:nodetypes="cccccccccccc" />
</svg>
